X: 2117
T: Atlantean, The
R: hornpipe
M: 4/4
K: Aminor
|:A3 E GA c2|A3 E G A3|B2 AG AB G2-|G2 ED EGdB|
A3 E GA c2|c2 AE G A3|B G3 DE (3GBd|e2 dB c2 BG:|
A2 (3cde f3 g|e2 A2 GAce|d2 BA G3 E|D G3 dGBc|
A2 (3cde f3 g|e2 A2 GAce|d2 cB d3 g|g2 eG decB|
A2 (3cde f3 g|e2 A2 GAce|d2 BA G3 E|D G3 dGBc|
A2 (3cde f3 g|ageG Acec|d2 cB d3 g|g2 eG decB|

